X:1
T:Beverley, 87.88.77.777
T:William Henry Monk, 1875
T:Beverley, 87.88.77.777
T:Public Domain
C:William Henry Monk, 1875
Z:Public Domain
%%score ( 1 2 ) ( 3 4 )
L:1/8
M:4/4
K:C
V:1 treble 
V:2 treble 
V:3 bass 
V:4 bass 
V:1
 G2 G2 [Cc]2 [CG]2 | [B,F]2 [CE]2 [B,D]2 C2 | [DG]2 [DF]2 [CE]2 [CE]2 | D2 ([A,C]2 [B,G]4) | %4
 G2 [B,G]2 [Cc]2 G2 | [Gc]2 [Fd]2 [Ee]2 [Gc]2 | E2 E2 [EA]2 E2 | [EA]2 [EB]2 [Ec]2 [EA]2 | %8
 [DB]2 [Cc]2 [DB]2 [B,G]2 | [EA]2 [CB]2 [B,G]4 | [B,G]3 [DG] [FA]2 [CG]2 | [FA]2 [FB]2 [Ec]4 | %12
 [Ec]3 [Ec] [Fc]2 [Ec]2 | [Fc]2 [E_B]2 [FA]4 | [CA]2 [CA]2 [DG]2 [Gc]2 | [Ge]2 [Fd]2 [Ec]4 | %16
 [GB]2 [FA]2 [EG]2 [Gc]2 | [FA]2 [FB]2 [Ec]4 |] %18
V:2
 G2 G2 x4 | x6 C2 | x8 | D2 x6 | G2 x2 G2 x2 | x8 | E2 E2 E2 x2 | x8 | x8 | x8 | x8 | x8 | x8 | %13
 x8 | x8 | x8 | x8 | x8 |] %18
V:3
 G,2 [F,G,]2 [E,G,]2 E,2 | [D,F,]2 [C,G,]2 [G,,F,]2 [A,,E,]2 | [B,,G,]2 [B,,G,]2 [C,G,]2 [C,G,]2 | %3
 B,,2 z ^F, [G,,G,]4 | G,2 [F,G,]2 [E,G,]2 ([E,G,][F,A,]) | [E,G,]2 [D,B,]2 [C,C]2 [E,C]2 | %6
 E,2 [B,,^G,]2 [C,A,]2 (E,D,) | [C,A,]2 [B,,^G,]2 [A,,A,]2 [C,A,]2 | %8
 [E,^G,]2 [A,,A,]2 [B,,=G,]2 [E,G,]2 | [C,G,]2 [D,^F,]2 [G,,G,]4 | G,3 [G,B,] [F,C]2 [E,G,]2 | %11
 [D,F,]2 [D,F,]2 [C,G,]4 | C3 [B,_C] [A,C]2 [B,C]2 | [A,C]2 [G,C]2 [F,C]4 | %14
 [F,C]2 [F,A,]2 [F,B,]2 (E,F,) | [G,C]2 [^G,B,]2 [A,C]4 | [E,C]2 [F,C]2 [G,C]2 [G,E]2 | %17
 [G,D]2 [G,D]2 [C,C]4 |] %18
V:4
 G,2 x2 E,2 x2 | x8 | x8 | G,3 A,,2 x3 | G,2 x6 | x8 | E,2 x2 ^G,2 x2 | x8 | x8 | x8 | G,3 x5 | %11
 x8 | _C3 x5 | x8 | x6 C2 | x8 | x8 | x8 |] %18

